X:1
T:The Entertainer
T:The Entertainer
T:Scott Joplin
C:Scott Joplin
%%score { 1 | 2 }
L:1/8
Q:1/4=120
M:4/4
K:C
V:1 treble nm="Piano" snm="Pno."
V:2 bass 
V:1
 d'e'c'a- ab g2 | decA- AB G2 | DECA,- A,B,A,_A, | G,2 z2 [Bdg]2 D^D |:S E c2 E c2 Ec- | %5
 c4 z cd^d | ecde- eB d2 | c4 z2 D^D | E c2 E c2 Ec- | c4 z2 AG | ^FAce- edcA | d4 z2 D^D | %12
 E c2 E c2 Ec- | c4 z cd^d | ecde- eB d2 | c4 z2 cd | ecde- ecdc | ecde- ecdc | %18
 ecde- eB d2!dacoda! |1 c4 z2 D^D :|2 c4 z EF^F |: G2 AG- GEF^F | G2 AG z ecG | ABcd edcd | %24
 G4 z EF^F | G2 AG- GEF^F | G2 AG z GA^A | B B2 B- BA^FD | G4 z EF^F | G2 AG- GEF^F | G2 AG z ecG | %31
 ABcd edcd | c4 z G^FG | c2 Ac z AcA | Gceg- gecG | A2 c2 e d2 c- |1 c4 z EF^F :|2 %37
 c4 z2 D^D!D.S.! || z8 |O c4 z4 |:[K:F] A^G A2- A2 c2 | d4- d4 | FE F2- F2 A2 | B6 G2 | %44
 D2 GD- DG D2 | C4 F4 | E^G=Be- edBc | A2 z2 B2 z2 | A^G A2- A2 c2 | d4- d4 | FE F2- F2 A2 | %51
 B6 G2 | D2 GD- DG D2 | C4 F3 F | A c2 G- GCDE |1 F2 =B,C DEFG :|2 F2 z2 f2 z2 || %57
[K:C] c2 Ac- cAcA | Gceg- gecG | A2 c2 e d2 c- | c2 z2 c'2 z2 |: [FA]2 [E^G]F- [FA][EG] [FA]2 | %62
 z AdA cdcA | [EG]2 [^D^F][EG]- [EG][DF] [EG]2 | z cec dedc | [Bd]2 ^cd- dc [Bd]2 | z faf gagf | %67
 c'c' c'2- c'2 a2 | [cg]2 GG [EG]2 [EG]2 | [FA]2 [E^G]F- [FA][EG] [FA]2 | z AdA cdcA | %71
 [EG]2 [^D^F][EG]- [EG][DF] [EG]2 | z cec dedc | A^GAg- g f2 c | e^dea- ac'ge | c2 c2 e d2 c- |1 %76
 c2 [EG][EG] [EG]2 [EG]2 :|2 c2 z2 [egc']2 z2 |] %78
V:2
 decA- AB G2 | DECA,- A,B, G,2 | D,E,C,A,,- A,,B,,A,,_A,, | G,,2 z2 G,,,2 [G,B,]2 |: %4
 C,2 [E,G,]2 C,2 [E,_B,]2 | F,2 [A,C]2 E,2 [G,C]2 | G,,2 [C,E,]2 G,,2 [D,F,]2 | %7
 C,2 [E,G,]2 [E,G,]2 [G,B,]2 | C,2 [E,G,]2 C,2 [E,_B,]2 | F,2 [A,C]2 E,2 _E,2 | %10
 D,2 [^F,A,]2 D,2 [F,A,]2 | [G,B,]2 G,,2 A,,2 B,,2 | C,2 [E,G,]2 C,2 [E,_B,]2 | %13
 F,2 [A,C]2 E,2 [G,C]2 | G,,2 [C,E,]2 G,,2 [D,F,]2 | [C,E,]2 G,,2 [C,E,]2 z2 | %16
 C,2 [E,G,]2 _B,,2 [E,G,]2 | A,,2 [C,F,]2 _A,,2 [C,F,]2 | G,,2 [C,E,]2 G,,2 [D,F,]2 |1 %19
 [C,E,]2 G,,2 A,,2 B,,2 :|2 [C,E,]2 G,,2 C,,2 z2 |: C,2 [E,G,]2 C,2 [E,G,]2 | %22
 C,2 [E,G,]2 C,2 [E,G,]2 | F,2 [A,C]2 F,2 [_A,C]2 | C,2 [E,G,]2 C,2 [E,G,]2 | %25
 C,2 [E,G,]2 C,2 [E,G,]2 | C,2 [E,G,]2 E,2 _E,2 | D,2 [G,B,]2 D,2 [A,C]2 | [G,B,D]2 F,2 E,2 D,2 | %29
 C,2 [E,G,]2 C,2 [E,G,]2 | C,2 [E,G,]2 C,2 [E,G,]2 | F,2 [A,C]2 F,2 [_A,C]2 | %32
 C,2 [E,G,]2 C,2 [E,_B,]2 | [F,A,C]2 [F,A,C]2 [^F,A,C]2 [F,A,C]2 | %34
 [G,CE]2 [G,CE]2 [G,CE]2 [G,CE]2 | D,2 [^F,C]2 G,2 [B,D]2 |1 C2 G,2 E,2 D,2 :|2 C2 G,2 C,2 z2 || %38
 z8 | C2 G,2 C,2 z2 |:[K:F] F,2 [A,C]2 F,2 [A,C]2 | G,2 [B,D]2 G,2 [B,D]2 | %42
 D,2 [F,A,]2 D,2 [F,A,]2 | G,2 [B,D]2 G,2 [B,D]2 | G,2 [B,D]2 G,2 ^G,2 | F,2 [A,C]2 D,2 [F,A,]2 | %46
 E,2 [=B,D]2 ^G,2 [B,D]2 | [A,CE]2 z2 [G,CE]2 z2 | F,2 [A,C]2 F,2 [A,C]2 | G,2 [B,D]2 G,2 [B,D]2 | %50
 D,2 [F,A,]2 D,2 [F,A,]2 | G,2 [B,D]2 G,2 [B,D]2 | [B,,G,]2 [B,,G,]2 G,2 ^G,2 | A,F,E,D, _D,2 z2 | %54
 C,2 [F,A,]2 C,2 C,,2 |1 F,,2 z2 z4 :|2 F,,2 z2 F,,2 z2 ||[K:C] F,2 [A,C]2 ^F,2 [A,C]2 | %58
 G,2 [CE]2 G,2 [CE]2 | D,2 [A,C]2 D,2 [G,B,]2 | C,2 z2 C,,2 z2 |: F,2 [A,C]2 F,2 [A,C]2 | %62
 F,2 [A,C]2 F,2 [A,C]2 | C,2 [E,G,]2 C,2 [E,G,]2 | C,2 [E,G,]2 C,2 [E,G,]2 | %65
 G,2 [B,D]2 G,2 [B,D]2 | G,2 [B,D]2 G,2 [B,D]2 | [D,^F,C]2 [D,F,C]2 z2 [D,F,C]2 | [E,G,C]2 z2 z4 | %69
 F,2 [A,C]2 F,2 [A,C]2 | F,2 [A,C]2 F,2 [A,C]2 | C,2 [E,G,]2 C,2 [E,G,]2 | %72
 C,2 [E,G,]2 C,2 [E,G,]2 | F,2 D,2 E,2 F,2 | [C,E,G,]2 [C,E,G,]2 [C,_D,^F,A,]2 [C,E,G,]2 | %75
 A,2 D,2 G,2 B,2 |1 C2 z2 z4 :|2 C2 G,2 [C,,C,]2 z2 |] %78

